X:1
T:Title
%%score ( 1 2 ) { 3 | 4 }
L:1/8
Q:1/4=90
M:4/4
K:F
V:1 treble nm="Grand Piano, Soprano"
V:2 treble 
V:3 treble nm="Choir Pad, Are You Looking for a Friend?"
V:4 bass 
V:1
 [CF][FG][FA][FA] [FA][FA] [CF]2 | [FA][FB][Fc][Fc] [Fc][Fc] [FA]2 | [Fc]2 [Fd]2 [Fc]2 [FA]2 | %3
w: By~Alice~E.~Hansell * * * * * *|||
 [CF]2 [FA][FG] [FG][FA] [EG]2 | F[CG][CA][CA] [CA][CA] [A,F]2 | %5
w: ||
 [B,G][_EA][DB][CA] [DB][=Ec] [Fd]2 | [Fd][Fd] [Fc]2 [Ec]2 [Fc][FA] | z8 | z2 z c- c4- | %9
w: ||||
 c z z d- d2- d/ z/ z | z8 | z8 | z2 z c- c4- | c z z2 z4 | z8 | z2 z G- G2- G/ z/ z | z8 |] %17
w: ||||||||
V:2
 x8 | x8 | x8 | x8 | x8 | x8 | x8 | [CF][FG] [FA]2 [EG]2 F2- | F [FA]2 F F E2 F- | %9
 F [FA]2 F F2 F[Fc]- | [Fc] [FA]2 [EG]- [EG][EG][EG][FA]- | [FA] [FA]2 [F=B] [FA]2 [FG][Ec]- | %12
 [Ec] [FA]2 F F E2 F- | F[FA][FA][EA]- [EA][Fc][Fc][Fd]- | [Fd] [Fdf]2 [Fc] [Fc] [Ec]2 [Fc]- | %15
 [Fc] [FA]2 F- F E2 F- | F6 z2 |] %17
V:3
 A,B,CC CC[K:bass] A,2 | CB,A,A, A,A, C2 | A,2 B,2[K:treble] C2 C2 | C2 =B,B,[K:bass] G,B,CB, | %4
 A,G,F,F, F,F, F,2 | F,F,F,F, F,F, B,2 | ^F,F, A,2 B,2 A,[K:treble]C | CD C2 B,2[K:bass] A,2- | %8
 A, C2 A, A, B,2[K:treble] C- | C C2 B, B,2 B,C- | C C2 C- CCC[K:bass]=B,- | B, =B,2 D B,2 G,G,- | %12
 G, C2 A, A, B,2[K:treble] C- | CCCC- CCC[K:bass]B,- | B, _A,2 =A, A, G,2 A,- | %15
 A, C2 =B,- B, _B,2 A,- | A,6 z2 |] %17
V:4
 F,F,F,F, F,F, F,2 | F,F,F,F, F,F, F,2 | F,2 z2 A,2 F,2 | A,2 G,G, =B,,G,, C,2 | F,E, z2 z4 | %5
 z2 B,,B,, B,,B,, B,,2 | =B,,B,, C,2 C,2 F,F, | A,,B,, C,2 C,2 F,2- | F, F,2 F, F, G,2 A,- | %9
 A, .F,3 z2 z A,- | A, F,2 G,- G,G,G,G,- | G, G,2 G, G,2 z C,- | C, C,2 F, F, G,2 A,- | %13
 A,F,F,G,- G,A, .A,2 | z =B,,2 C, C, C,2 C,- | C, C,2 D,- D, C,2 F,- | F,6 z2 |] %17

